public/img/assets/icons/weather-conditions/small/clear-day.svg

<svg width="24" height="24" viewBox="0 0 24 24" fill="none" xmlns="http://www.w3.org/2000/svg">
<path d="M11.9999 1.71429C12.1704 1.71429 12.334 1.78202 12.4545 1.90258C12.5751 2.02313 12.6428 2.18665 12.6428 2.35714V3.63943C12.6428 3.80993 12.5751 3.97344 12.4545 4.094C12.334 4.21456 12.1704 4.28229 11.9999 4.28229C11.8295 4.28229 11.6659 4.21456 11.5454 4.094C11.4248 3.97344 11.3571 3.80993 11.3571 3.63943V2.35714C11.3571 2.18665 11.4248 2.02313 11.5454 1.90258C11.6659 1.78202 11.8295 1.71429 11.9999 1.71429V1.71429ZM17.1428 12C17.1428 12.6754 17.0098 13.3441 16.7513 13.9681C16.4929 14.592 16.1141 15.159 15.6365 15.6366C15.1589 16.1141 14.592 16.4929 13.968 16.7514C13.3441 17.0098 12.6753 17.1429 11.9999 17.1429C11.3246 17.1429 10.6558 17.0098 10.0319 16.7514C9.4079 16.4929 8.84096 16.1141 8.3634 15.6366C7.88584 15.159 7.50702 14.592 7.24857 13.9681C6.99011 13.3441 6.85709 12.6754 6.85709 12C6.85709 10.636 7.39893 9.32792 8.3634 8.36345C9.32787 7.39898 10.636 6.85714 11.9999 6.85714C13.3639 6.85714 14.672 7.39898 15.6365 8.36345C16.601 9.32792 17.1428 10.636 17.1428 12V12ZM21.6428 12.6429C21.8133 12.6429 21.9768 12.5751 22.0974 12.4546C22.2179 12.334 22.2857 12.1705 22.2857 12C22.2857 11.8295 22.2179 11.666 22.0974 11.5454C21.9768 11.4249 21.8133 11.3571 21.6428 11.3571H20.3597C20.1892 11.3571 20.0257 11.4249 19.9051 11.5454C19.7845 11.666 19.7168 11.8295 19.7168 12C19.7168 12.1705 19.7845 12.334 19.9051 12.4546C20.0257 12.5751 20.1892 12.6429 20.3597 12.6429H21.6419H21.6428ZM11.9999 19.7177C12.1704 19.7177 12.334 19.7854 12.4545 19.906C12.5751 20.0266 12.6428 20.1901 12.6428 20.3606V21.6429C12.6428 21.8134 12.5751 21.9769 12.4545 22.0974C12.334 22.218 12.1704 22.2857 11.9999 22.2857C11.8295 22.2857 11.6659 22.218 11.5454 22.0974C11.4248 21.9769 11.3571 21.8134 11.3571 21.6429V20.3606C11.3571 20.1901 11.4248 20.0266 11.5454 19.906C11.6659 19.7854 11.8295 19.7177 11.9999 19.7177V19.7177ZM3.6428 12.6429C3.8133 12.6429 3.97681 12.5751 4.09737 12.4546C4.21793 12.334 4.28566 12.1705 4.28566 12C4.28566 11.8295 4.21793 11.666 4.09737 11.5454C3.97681 11.4249 3.8133 11.3571 3.6428 11.3571H2.35709C2.18659 11.3571 2.02308 11.4249 1.90252 11.5454C1.78196 11.666 1.71423 11.8295 1.71423 12C1.71423 12.1705 1.78196 12.334 1.90252 12.4546C2.02308 12.5751 2.18659 12.6429 2.35709 12.6429H3.6428ZM4.47338 4.47343C4.59391 4.35304 4.7573 4.28542 4.92766 4.28542C5.09802 4.28542 5.26141 4.35304 5.38195 4.47343L6.66766 5.75914C6.78122 5.88101 6.84304 6.04219 6.8401 6.20873C6.83716 6.37528 6.76969 6.53418 6.65191 6.65196C6.53413 6.76975 6.37523 6.83721 6.20868 6.84015C6.04214 6.84309 5.88095 6.78127 5.75909 6.66772L4.47338 5.382C4.35299 5.26146 4.28537 5.09807 4.28537 4.92772C4.28537 4.75736 4.35299 4.59397 4.47338 4.47343V4.47343ZM5.38195 19.5249C5.26008 19.6384 5.0989 19.7002 4.93236 19.6973C4.76581 19.6944 4.60691 19.6269 4.48913 19.5091C4.37135 19.3913 4.30388 19.2324 4.30094 19.0659C4.298 18.8993 4.35982 18.7382 4.47338 18.6163L5.75909 17.3306C5.88095 17.217 6.04214 17.1552 6.20868 17.1581C6.37523 17.1611 6.53413 17.2285 6.65191 17.3463C6.76969 17.4641 6.83716 17.623 6.8401 17.7896C6.84304 17.9561 6.78122 18.1173 6.66766 18.2391L5.38195 19.5249ZM19.5248 4.47343C19.4043 4.35304 19.2409 4.28542 19.0705 4.28542C18.9002 4.28542 18.7368 4.35304 18.6162 4.47343L17.3305 5.75914C17.217 5.88101 17.1551 6.04219 17.1581 6.20873C17.161 6.37528 17.2285 6.53418 17.3463 6.65196C17.4641 6.76975 17.623 6.83721 17.7895 6.84015C17.956 6.84309 18.1172 6.78127 18.2391 6.66772L19.5248 5.382C19.6452 5.26146 19.7128 5.09807 19.7128 4.92772C19.7128 4.75736 19.6452 4.59397 19.5248 4.47343V4.47343ZM18.6171 19.5257C18.6759 19.5889 18.7469 19.6395 18.8258 19.6747C18.9046 19.7098 18.9898 19.7287 19.0761 19.7302C19.1624 19.7317 19.2481 19.7159 19.3282 19.6835C19.4082 19.6512 19.4809 19.6031 19.542 19.542C19.603 19.481 19.6511 19.4083 19.6835 19.3282C19.7158 19.2482 19.7317 19.1624 19.7302 19.0761C19.7286 18.9898 19.7098 18.9047 19.6746 18.8258C19.6395 18.747 19.5888 18.676 19.5257 18.6171L18.2399 17.3314C18.1811 17.2683 18.1101 17.2176 18.0313 17.1825C17.9524 17.1473 17.8673 17.1284 17.781 17.1269C17.6947 17.1254 17.6089 17.1413 17.5289 17.1736C17.4488 17.2059 17.3761 17.2541 17.3151 17.3151C17.254 17.3762 17.2059 17.4489 17.1736 17.5289C17.1412 17.609 17.1253 17.6947 17.1269 17.781C17.1284 17.8673 17.1473 17.9525 17.1824 18.0313C17.2176 18.1102 17.2682 18.1811 17.3314 18.24L18.6171 19.5257Z" fill="#FEB800"/>
</svg>

<svg width="24" height="24" fill="none" xmlns="http://www.w3.org/2000/svg"><path d="M12 1.714a.643.643 0 0 1 .643.643V3.64a.643.643 0 1 1-1.286 0V2.357A.643.643 0 0 1 12 1.714ZM17.143 12a5.142 5.142 0 1 1-10.284 0 5.142 5.142 0 0 1 10.284 0Zm4.5.643a.643.643 0 0 0 0-1.286H20.36a.643.643 0 0 0 0 1.286h1.282ZM12 19.718a.643.643 0 0 1 .643.643v1.282a.642.642 0 1 1-1.286 0V20.36a.643.643 0 0 1 .643-.643Zm-8.357-7.075a.643.643 0 0 0 0-1.286H2.357a.643.643 0 0 0 0 1.286h1.286Zm.83-8.17a.643.643 0 0 1 .909 0L6.668 5.76a.643.643 0 0 1-.909.909L4.473 5.382a.643.643 0 0 1 0-.909Zm.909 15.052a.643.643 0 0 1-.909-.909l1.286-1.285a.643.643 0 0 1 .909.908l-1.286 1.286ZM19.525 4.473a.643.643 0 0 0-.909 0L17.331 5.76a.643.643 0 0 0 .908.909l1.286-1.286a.643.643 0 0 0 0-.909Zm-.908 15.053a.642.642 0 1 0 .909-.909l-1.286-1.286a.643.643 0 1 0-.909.909l1.286 1.286Z" fill="#FEB800"/></svg>
